assets/images/empty-state__attach-receipt.svg

<svg xmlns="http://www.w3.org/2000/svg" width="73" height="99" fill="none" viewBox="0 0 73 99"><path fill="#DC80E4" stroke="#002140" stroke-miterlimit="10" d="M1.22443 97.9995L5.1318 92.8644L9.37441 97.8885L13.839 93.0887L18.7498 97.7775L24.1068 92.7534L28.6824 97.9995L33.4822 92.8644L39.0635 97.4399V56.0287H67.9734C67.9734 56.0287 72.1027 55.2473 72.1027 48.7735V1.78103L66.6324 6.46988L62.2788 1.11285L57.9252 6.46988L53.0144 1.44579L47.9903 6.69183L43.861 1.44579L39.7317 6.58086L34.8209 2.22726V23.771H8.59063C8.59063 23.771 1.22443 27.0078 1.22443 45.0904V97.9995Z"/><path fill="#002140" d="M39.0635 56.0294H65.0718C65.0718 56.0294 61.6384 52.6815 59.1275 47.7407C56.6166 42.8021 50.4203 24.0491 45.7338 24.0491C41.0473 24.0491 39.119 30.9968 39.119 36.2729C39.119 41.549 39.0635 56.0294 39.0635 56.0294Z"/><path stroke="#002140" stroke-linecap="round" stroke-linejoin="round" d="M45.8168 23.8822H8.47949C8.47949 23.8822 1.22427 26.0024 1.22427 47.9923L1 97.9997L5.0091 92.7421L9.37194 97.9997L13.7371 92.7537L18.9716 97.9997L23.8893 92.7537L28.6845 97.9997L33.5028 92.7537L39.1211 97.387V35.7708C39.1211 29.408 42.0783 23.8822 45.8192 23.8822C53.0189 23.8822 58.154 56.029 66.7479 56.029C72.1049 56.029 72.1049 49.331 72.1049 49.331V1.33276"/><path stroke="#002140" stroke-linecap="round" stroke-linejoin="round" d="M66.0773 56.0295H39.2875"/><path stroke="#002140" stroke-linecap="round" stroke-linejoin="round" d="M34.8228 23.8826V1.78168"/><path stroke="#002140" stroke-linecap="round" stroke-linejoin="round" d="M34.8228 1.78148L39.7336 6.69227L43.752 1.33525L48.1056 6.80557L52.7528 1.33525L57.7075 6.5813L62.3917 1L66.6899 6.63679L72.1047 1.33525"/><path fill="#002140" d="M67.416 14.9536H38.2819V18.0795H67.416V14.9536Z"/><path fill="#002140" d="M50.1149 27.6212L51.8443 30.6916H67.2472V27.5103L50.1149 27.6212Z"/><path fill="#002140" d="M55.0813 37.7803H67.3051V41.2969H56.5332"/><path fill="#002140" d="M6.91656 33.2021C6.91656 33.2021 5.52239 34.9871 6.24606 37.1095H33.7618V33.2021H6.91656Z"/><path fill="#002140" d="M6.91656 49C6.91656 49 5.52239 50.7849 6.24606 52.9074H33.7618V49H6.91656Z"/><path fill="#002140" d="M6.91656 65C6.91656 65 5.52239 66.7849 6.24606 68.9074H33.7618V65H6.91656Z"/><circle cx="37" cy="68" r="15.5" fill="#06D47C" stroke="#002140"/><path fill="#FFFAF0" d="M38.7415 70.7201C38.7415 70.7201 39.0477 69.9772 39.4626 69.9555C39.8775 69.9338 44.1389 69.912 44.1389 69.912C44.1389 69.912 44.7947 69.6493 44.6851 69.0161C44.5755 68.3829 44.5764 66.8528 44.5764 66.8528C44.5764 66.8528 44.3581 66.3283 43.8781 66.2848C43.398 66.2414 39.6167 66.2631 39.6167 66.2631C39.6167 66.2631 39.2453 66.4607 39.0053 66.0883C38.7642 65.7168 38.7642 65.0175 38.7642 65.0175L38.6773 60.9971C38.6773 60.9971 38.3938 60.4943 37.9345 60.4736C37.4761 60.4519 35.706 60.5605 35.706 60.5605C35.706 60.5605 35.3563 60.7798 35.2911 60.845C35.2259 60.9102 35.139 61.9593 35.139 61.9593L35.1607 65.7386C35.1607 65.7386 34.9335 66.0408 34.6797 66.1762C34.4268 66.3105 30.2879 66.3283 30.2879 66.3283C30.2879 66.3283 29.7051 66.4508 29.5451 66.7649C29.3851 67.079 29.3485 69.103 29.3485 69.103C29.3485 69.103 29.5885 69.6927 30.0696 69.8676C30.5507 70.0424 34.6145 69.999 34.6145 69.999C34.6145 69.999 35.1163 70.3704 35.1825 70.6104C35.2486 70.8504 35.1607 75.0891 35.1607 75.0891C35.1607 75.0891 35.6201 75.7223 36.1446 75.7667C36.6691 75.8112 38.1113 75.7223 38.1113 75.7223C38.1113 75.7223 38.7455 75.7005 38.7672 74.936C38.7889 74.1714 38.7445 70.7191 38.7445 70.7191L38.7415 70.7201Z"/></svg>

<svg xmlns="http://www.w3.org/2000/svg" width="73" height="99" fill="none" viewBox="0 0 73 99"><path fill="#dc80e4" stroke="#002140" stroke-miterlimit="10" d="m1.224 98 3.908-5.136 4.242 5.024 4.465-4.8 4.91 4.69 5.358-5.025L28.682 98l4.8-5.135 5.581 4.576V56.029h28.91s4.13-.782 4.13-7.256V1.782l-5.47 4.689-4.354-5.357-4.354 5.357-4.91-5.024-5.025 5.246-4.129-5.246-4.13 5.135-4.91-4.354v21.544H8.59s-7.367 3.237-7.367 21.32z"/><path fill="#002140" d="M39.064 56.03h26.008s-3.434-3.349-5.945-8.29c-2.51-4.938-8.707-23.69-13.393-23.69-4.687 0-6.615 6.947-6.615 12.223s-.056 19.756-.056 19.756"/><path stroke="#002140" stroke-linecap="round" stroke-linejoin="round" d="M45.817 23.882H8.479s-7.255 2.12-7.255 24.11L1 98l4.01-5.258L9.371 98l4.365-5.246L18.972 98l4.917-5.246L28.685 98l4.818-5.246 5.618 4.633V35.771c0-6.363 2.957-11.889 6.698-11.889 7.2 0 12.335 32.147 20.929 32.147 5.357 0 5.357-6.698 5.357-6.698V1.333M66.077 56.03h-26.79m-4.464-32.147V1.782"/><path stroke="#002140" stroke-linecap="round" stroke-linejoin="round" d="m34.823 1.781 4.91 4.911 4.019-5.357 4.354 5.47 4.647-5.47 4.955 5.246L62.392 1l4.298 5.637 5.415-5.302"/><path fill="#002140" d="M67.416 14.954H38.282v3.125h29.134zM50.115 27.621l1.73 3.07h15.402v-3.18zm4.966 10.159h12.224v3.517H56.533M6.917 33.202s-1.395 1.785-.67 3.907h27.515v-3.907zm0 15.798s-1.395 1.785-.67 3.907h27.515V49zm0 16s-1.395 1.785-.67 3.907h27.515V65z"/><circle cx="37" cy="68" r="15.5" fill="#06d47c" stroke="#002140"/><path fill="#fffaf0" d="M38.742 70.72s.306-.743.72-.764c.415-.022 4.677-.044 4.677-.044s.656-.263.546-.896-.109-2.163-.109-2.163-.218-.525-.698-.568c-.48-.044-4.261-.022-4.261-.022s-.372.198-.612-.175c-.24-.371-.24-1.07-.24-1.07l-.088-4.02s-.283-.504-.742-.524c-.459-.022-2.229.087-2.229.087s-.35.219-.415.284-.152 1.114-.152 1.114l.022 3.78s-.227.302-.481.437c-.253.135-4.392.152-4.392.152s-.583.123-.743.437-.197 2.338-.197 2.338.24.59.722.765c.48.174 4.544.131 4.544.131s.502.371.569.611-.022 4.48-.022 4.48.46.632.984.677c.524.044 1.966-.045 1.966-.045s.635-.021.656-.786-.023-4.217-.023-4.217z"/></svg>
